X:1
T:Sourwood Mountains [2], The
M:6/8
L:1/8
S:Fiddler James Taylor (1930's), of Greene County, Pa., and Wetzel
S:County, W.Va.
B:Bayard - Dance to the Fiddle, March to the Fife (1981, No. 486)
Z:AK/Fiddler's Companion
K:G
D|G>Bd g2D|G>Bd g2g|bag efg|age dBA|
G>Bd g2D|G>Bd g2g|bag edB|G3 G2||
G-|G>Bd g2b age d2g|fef def|gfe d2G-|
G>Bd g2b|age d3|{g}f>ef def|g3 g2||

